themes/default/static/logos/pkg/azure-quickstart-sql.svg

<svg width="18" height="14" viewBox="0 0 18 14" fill="none" xmlns="http://www.w3.org/2000/svg">
<path d="M14.5 5.09961C14.5 3.69961 13.9 2.49961 12.9 1.49961C11.9 0.599609 10.6 0.0996094 9.3 0.0996094C8.2 0.0996094 7.1 0.399609 6.2 0.999609C5.3 1.59961 4.6 2.49961 4.2 3.49961C3.1 3.79961 2 4.39961 1.2 5.19961C0.5 6.09961 0 7.19961 0 8.39961C0 9.69961 0.6 10.9996 1.5 11.8996C2.5 12.7996 3.7 13.2996 5 13.2996H13.8C14.9 13.2996 15.9 12.7996 16.7 12.0996C17.5 11.2996 17.9 10.2996 18 9.19961C18 8.19961 17.6 7.29961 17 6.59961C16.3 5.79961 15.5 5.29961 14.5 5.09961Z" fill="url(#paint0_linear_103:10)"/>
<path d="M12.9 9.40039V6.00039H12V10.1004H14.5V9.40039H12.9ZM5.80001 7.70039C5.60001 7.70039 5.40001 7.60039 5.30001 7.40039L5.20001 7.30039C5.20001 7.20039 5.20001 7.20039 5.20001 7.10039C5.20001 7.00039 5.20001 7.00039 5.20001 6.90039C5.20001 6.80039 5.30001 6.80039 5.30001 6.80039C5.40001 6.70039 5.60001 6.70039 5.70001 6.70039C6.10001 6.70039 6.40001 6.80039 6.70001 7.00039V6.10039C6.40001 6.00039 6.00001 5.90039 5.70001 5.90039C5.30001 5.90039 4.90001 6.00039 4.60001 6.30039C4.50001 6.40039 4.40001 6.50039 4.30001 6.70039C4.20001 6.80039 4.20001 7.00039 4.20001 7.20039C4.20001 7.70039 4.50001 8.10039 5.20001 8.40039C5.40001 8.50039 5.60001 8.60039 5.80001 8.80039L5.90001 8.90039C5.90001 9.00039 5.90001 9.00039 5.90001 9.10039C5.90001 9.20039 5.90001 9.20039 5.90001 9.30039C5.90001 9.40039 5.80001 9.40039 5.80001 9.40039C5.70001 9.50039 5.50001 9.50039 5.40001 9.50039C5.00001 9.50039 4.60001 9.30039 4.30001 9.10039V10.0004C4.60001 10.2004 5.00001 10.3004 5.40001 10.2004C5.80001 10.2004 6.20001 10.1004 6.60001 9.90039C6.70001 9.80039 6.80001 9.60039 6.90001 9.50039C6.80001 9.30039 6.90001 9.20039 6.80001 9.00039C6.80001 8.70039 6.70001 8.50039 6.60001 8.30039C6.40001 8.10039 6.10001 7.90039 5.80001 7.70039ZM11 9.30039C11.2 9.00039 11.3 8.60039 11.3 8.10039C11.3 7.70039 11.2 7.30039 11 6.90039C10.8 6.60039 10.6 6.30039 10.3 6.10039C10 6.10039 9.70001 6.00039 9.30001 6.00039C8.90001 6.00039 8.50001 6.10039 8.20001 6.30039C7.90001 6.40039 7.70001 6.70039 7.50001 7.00039C7.30001 7.40039 7.20001 7.70039 7.20001 8.10039C7.20001 8.40039 7.30001 8.80039 7.40001 9.10039C7.60001 9.40039 7.80001 9.70039 8.10001 9.80039C8.40001 10.0004 8.70001 10.1004 9.10001 10.1004L10 11.1004H11.2L10 10.1004C10.4 10.0004 10.8 9.70039 11 9.30039ZM10 9.10039C9.90001 9.20039 9.80001 9.30039 9.70001 9.30039C9.50001 9.40039 9.40001 9.40039 9.20001 9.40039C9.10001 9.40039 8.90001 9.40039 8.80001 9.30039C8.70001 9.30039 8.60001 9.20039 8.50001 9.10039C8.30001 8.80039 8.20001 8.50039 8.20001 8.10039C8.20001 7.70039 8.30001 7.40039 8.50001 7.10039C8.60001 7.00039 8.70001 6.90039 8.80001 6.80039C9.00001 6.70039 9.10001 6.70039 9.30001 6.70039C9.40001 6.70039 9.60001 6.70039 9.70001 6.80039C9.80001 6.80039 9.90001 6.90039 10 7.10039C10.2 7.40039 10.3 7.70039 10.3 8.10039C10.3 8.40039 10.2 8.80039 10 9.10039Z" fill="#F2F2F2"/>
<defs>
<linearGradient id="paint0_linear_103:10" x1="9.9124" y1="13.9508" x2="7.5204" y2="0.390809" gradientUnits="userSpaceOnUse">
<stop offset="0.15" stop-color="#0078D4"/>
<stop offset="0.8" stop-color="#5EA0EF"/>
<stop offset="1" stop-color="#83B9F9"/>
</linearGradient>
</defs>
</svg>

<?xml version="1.0" encoding="utf-8"?>
<!-- Generator: Adobe Illustrator 25.4.1, SVG Export Plug-In . SVG Version: 6.00 Build 0)  -->
<svg version="1.1" id="Layer_1" xmlns="http://www.w3.org/2000/svg" xmlns:xlink="http://www.w3.org/1999/xlink" x="0px" y="0px"
	 viewBox="0 0 18 14" style="enable-background:new 0 0 18 14;" xml:space="preserve">
<style type="text/css">
	.st0{fill:url(#SVGID_1_);}
	.st1{fill:#F2F2F2;}
</style>
<linearGradient id="SVGID_1_" gradientUnits="userSpaceOnUse" x1="9.9124" y1="-6.138609e-02" x2="7.5204" y2="13.4986" gradientTransform="matrix(1 0 0 -1 0 13.8898)">
	<stop  offset="0.15" style="stop-color:#0078D4"/>
	<stop  offset="0.8" style="stop-color:#5EA0EF"/>
	<stop  offset="1" style="stop-color:#83B9F9"/>
</linearGradient>
<path class="st0" d="M14.5,5.1c0-1.4-0.6-2.6-1.6-3.6c-1-0.9-2.3-1.4-3.6-1.4c-1.1,0-2.2,0.3-3.1,0.9c-0.9,0.6-1.6,1.5-2,2.5
	C3.1,3.8,2,4.4,1.2,5.2C0.5,6.1,0,7.2,0,8.4c0,1.3,0.6,2.6,1.5,3.5c1,0.9,2.2,1.4,3.5,1.4h8.8c1.1,0,2.1-0.5,2.9-1.2
	c0.8-0.8,1.2-1.8,1.3-2.9c0-1-0.4-1.9-1-2.6C16.3,5.8,15.5,5.3,14.5,5.1z"/>
<path class="st1" d="M12.9,9.4V6H12v4.1h2.5V9.4H12.9z M5.8,7.7C5.6,7.7,5.4,7.6,5.3,7.4c0,0-0.1-0.1-0.1-0.1c0-0.1,0-0.1,0-0.2
	c0-0.1,0-0.1,0-0.2c0-0.1,0.1-0.1,0.1-0.1c0.1-0.1,0.3-0.1,0.4-0.1c0.4,0,0.7,0.1,1,0.3V6.1C6.4,6,6,5.9,5.7,5.9
	C5.3,5.9,4.9,6,4.6,6.3C4.5,6.4,4.4,6.5,4.3,6.7C4.2,6.8,4.2,7,4.2,7.2c0,0.5,0.3,0.9,1,1.2c0.2,0.1,0.4,0.2,0.6,0.4
	c0,0,0.1,0.1,0.1,0.1c0,0.1,0,0.1,0,0.2c0,0.1,0,0.1,0,0.2c0,0.1-0.1,0.1-0.1,0.1C5.7,9.5,5.5,9.5,5.4,9.5c-0.4,0-0.8-0.2-1.1-0.4
	V10c0.3,0.2,0.7,0.3,1.1,0.2c0.4,0,0.8-0.1,1.2-0.3c0.1-0.1,0.2-0.3,0.3-0.4C6.8,9.3,6.9,9.2,6.8,9c0-0.3-0.1-0.5-0.2-0.7
	C6.4,8.1,6.1,7.9,5.8,7.7z M11,9.3c0.2-0.3,0.3-0.7,0.3-1.2c0-0.4-0.1-0.8-0.3-1.2c-0.2-0.3-0.4-0.6-0.7-0.8C10,6.1,9.7,6,9.3,6
	C8.9,6,8.5,6.1,8.2,6.3C7.9,6.4,7.7,6.7,7.5,7C7.3,7.4,7.2,7.7,7.2,8.1c0,0.3,0.1,0.7,0.2,1c0.2,0.3,0.4,0.6,0.7,0.7
	c0.3,0.2,0.6,0.3,1,0.3l0.9,1h1.2L10,10.1C10.4,10,10.8,9.7,11,9.3z M10,9.1C9.9,9.2,9.8,9.3,9.7,9.3C9.5,9.4,9.4,9.4,9.2,9.4
	c-0.1,0-0.3,0-0.4-0.1C8.7,9.3,8.6,9.2,8.5,9.1c-0.2-0.3-0.3-0.6-0.3-1c0-0.4,0.1-0.7,0.3-1c0.1-0.1,0.2-0.2,0.3-0.3
	C9,6.7,9.1,6.7,9.3,6.7c0.1,0,0.3,0,0.4,0.1C9.8,6.8,9.9,6.9,10,7.1c0.2,0.3,0.3,0.6,0.3,1C10.3,8.4,10.2,8.8,10,9.1z"/>
</svg>
